icons/desktop/20/bookmark-20.svg

<svg width="20" height="20" viewBox="0 0 20 20" fill="none" xmlns="http://www.w3.org/2000/svg">
<path fill-rule="evenodd" clip-rule="evenodd" d="M8.05405 2.27276C8.75569 0.575812 11.2461 0.57568 11.9476 2.27276L13.4527 5.92063L18.0227 6.20681C19.7931 6.31718 20.7001 8.43847 19.3522 9.67299C19.0757 9.92647 18.7814 10.1824 18.4669 10.4374C17.4608 11.2531 16.4815 11.8812 15.6148 12.3654L16.7031 16.482C17.1684 18.2427 15.2179 19.593 13.6294 18.7348C13.2043 18.505 12.7675 18.2529 12.3244 17.9741L11.8793 17.6861C11.1802 17.2233 10.5567 16.7514 10.0003 16.2938C9.44412 16.7518 8.81994 17.2236 8.12139 17.6861C7.52468 18.0811 6.93958 18.4281 6.37226 18.7348C4.78374 19.5931 2.83239 18.2427 3.29761 16.482L4.38497 12.3654C3.5184 11.8814 2.53981 11.253 1.53482 10.4374L1.53384 10.4365C1.22087 10.1819 0.926206 9.92763 0.649513 9.67488C-0.701373 8.44004 0.20707 6.31724 1.97796 6.20681L6.54698 5.92063L8.05405 2.27276ZM10.3225 2.89784C10.2064 2.61699 9.79432 2.61699 9.67824 2.89784L7.96815 7.03994C7.84333 7.34243 7.54951 7.54882 7.21267 7.56994L2.09118 7.89001C1.94133 7.89934 1.83001 7.98574 1.77884 8.11594C1.72901 8.24288 1.75383 8.36024 1.85204 8.45013C2.10495 8.68117 2.37465 8.91367 2.66121 9.14676C3.79798 10.0693 4.8963 10.7317 5.81102 11.2027C6.16587 11.3857 6.34559 11.7784 6.24635 12.1545L4.99306 16.8981C4.92324 17.1635 5.21491 17.4267 5.51722 17.2634C6.04116 16.9802 6.58116 16.6601 7.13165 16.2956C7.82895 15.834 8.44823 15.3641 8.99206 14.909L9.00182 14.9014C9.5859 14.4201 10.427 14.4221 11.0086 14.908C11.5542 15.3638 12.1722 15.8343 12.869 16.2956C13.4179 16.6596 13.96 16.9799 14.4845 17.2634C14.7866 17.4263 15.0783 17.1643 15.0086 16.8991L13.7543 12.1545C13.6551 11.7783 13.8356 11.3856 14.1907 11.2027C15.105 10.7319 16.2025 10.0694 17.3405 9.14676L17.7572 8.7975C17.8917 8.68151 18.0221 8.56625 18.1477 8.45107L18.1487 8.45013C18.2463 8.36049 18.2718 8.24324 18.2219 8.11594C18.1706 7.98535 18.0594 7.89939 17.9105 7.89001L12.789 7.56994C12.4521 7.54888 12.1574 7.34249 12.0325 7.03994L10.3225 2.89784Z" fill="black"/>
</svg>

<!-- This Source Code Form is subject to the terms of the Mozilla Public
   - License, v. 2.0. If a copy of the MPL was not distributed with this
   - file, You can obtain one at http://mozilla.org/MPL/2.0/. -->
<svg xmlns="http://www.w3.org/2000/svg" width="20" height="20" fill="context-fill" fill-opacity="context-fill-opacity" viewBox="0 0 20 20">
    <path fill-rule="evenodd" d="M8.054 2.273c.702-1.697 3.192-1.697 3.894 0l1.505 3.648 4.57.286c1.77.11 2.677 2.231 1.33 3.466q-.415.381-.886.764a20 20 0 0 1-2.852 1.928l1.088 4.117c.465 1.76-1.485 3.111-3.074 2.253q-.638-.344-1.305-.76l-.445-.289A23 23 0 0 1 10 16.294a22.5 22.5 0 0 1-3.628 2.44c-1.588.86-3.54-.491-3.074-2.252l1.087-4.117a20 20 0 0 1-2.85-1.928h-.001a20 20 0 0 1-.884-.762C-.701 8.44.207 6.317 1.978 6.207l4.569-.286zm2.268.625c-.116-.281-.528-.281-.644 0L7.968 7.04a.87.87 0 0 1-.755.53l-5.122.32a.35.35 0 0 0-.312.226.284.284 0 0 0 .073.334q.38.347.81.697a18.3 18.3 0 0 0 3.149 2.056.83.83 0 0 1 .435.952l-1.253 4.743c-.07.265.222.529.524.365a21 21 0 0 0 3.475-2.354l.01-.008a1.57 1.57 0 0 1 2.007.007 21 21 0 0 0 3.476 2.355c.302.163.593-.099.524-.364l-1.255-4.744a.83.83 0 0 1 .437-.952 18.3 18.3 0 0 0 3.15-2.056l.416-.35q.203-.172.39-.346h.002a.285.285 0 0 0 .073-.335.35.35 0 0 0-.312-.226l-5.121-.32a.87.87 0 0 1-.756-.53z" clip-rule="evenodd" />
</svg>
